images/generic_song_link_icon.svg

<svg fill="none" height="16" viewBox="0 0 16 16" width="16" xmlns="http://www.w3.org/2000/svg"><path d="m12.1988 13.6175c.0593.0593.1381.09.2162.09s.1569-.03.2163-.09l1.7436-1.7437c.1194-.1194.1194-.3131 0-.4325-.1193-.1194-.3131-.1194-.4325 0l-1.7436 1.7437c-.1194.1194-.1194.3131 0 .4325zm1.3649-.5613c-.1656-.035-.3275.0725-.3612.2382-.0163.0787-.0494.1437-.0988.1931l-.7631.7631c-.1756.1756-.4918.1444-.7056-.0694-.2131-.2137-.2444-.53-.0688-.705l.7632-.7631c.0493-.0494.1143-.0825.1931-.0987.1656-.0344.2725-.1957.2381-.3613-.0337-.165-.1944-.2725-.3612-.2381-.1957.0406-.3694.1319-.5025.2656l-.7632.7631c-.4143.4138-.3831 1.1182.0694 1.5707.2394.2393.5488.3606.8488.3606.2669 0 .5269-.0963.7218-.2913l.7632-.7631c.1331-.1331.225-.3069.2656-.5025.0337-.1662-.0731-.3281-.2388-.3619zm1.8082-2.6112c-.4525-.45185-1.1569-.4831-1.5706-.0693l-.7631.7631c-.1332.1331-.225.3069-.2657.5025-.0343.1656.0725.3275.2382.3612.1668.0344.3275-.0725.3618-.2381.0163-.0788.0494-.1438.0988-.1931l.7631-.7632c.175-.175.4912-.1443.705.0694.2137.2138.2444.53.0694.7057l-.7632.7631c-.0493.0493-.1143.0825-.1931.0987-.1656.0344-.2718.1957-.2381.3613.03.1443.1575.2443.2994.2443.0206 0 .0412-.0018.0618-.0062.1951-.0406.3694-.1319.5025-.2656l.7632-.7632c.4131-.4137.3825-1.1187-.0694-1.5706zm-5.0019 4.4632h-7.60882c-1.01563 0-1.842556-.8269-1.842556-1.8432l-.000626-10.13053c0-1.01626.826882-1.84256 1.842562-1.84256h9.79934c1.0163 0 1.8426.82688 1.8426 1.84256v6.59247c0 .17938.1456.325.325.325.1793 0 .325-.14563.325-.325l.0006-6.59247c0-1.37437-1.1181-2.493125-2.4931-2.493125h-9.79875c-1.37437 0-2.493123 1.118125-2.493123 2.493125v10.13123c0 1.375 1.118753 2.4931 2.493123 2.4931h7.60875c.1794 0 .325-.1456.325-.325 0-.18-.1456-.3256-.325-.3256zm-1.81682-9.83565h2.34372v-2.4288h-3.56884v6.27439c-.33812-.18625-.72688-.29187-1.14-.29187-1.30625 0-2.36496 1.05813-2.36496 2.36493 0 1.3063 1.05876 2.365 2.36496 2.365 1.30626 0 2.36496-1.0588 2.36496-2.365 0-.0487-.0025-.0968-.005-.1443l.005.0081z" fill="#141414"/></svg>

<svg width="16" height="16" viewBox="0 0 16 16" fill="none" xmlns="http://www.w3.org/2000/svg">
<path d="M12.1988 13.6175C12.2581 13.6768 12.3369 13.7075 12.415 13.7075C12.4931 13.7075 12.5719 13.6775 12.6313 13.6175L14.3749 11.8738C14.4943 11.7544 14.4943 11.5607 14.3749 11.4413C14.2556 11.3219 14.0618 11.3219 13.9424 11.4413L12.1988 13.185C12.0794 13.3044 12.0794 13.4981 12.1988 13.6175H12.1988ZM13.5637 13.0562C13.3981 13.0212 13.2362 13.1287 13.2025 13.2944C13.1862 13.3731 13.1531 13.4381 13.1037 13.4875L12.3406 14.2506C12.165 14.4262 11.8488 14.395 11.635 14.1812C11.4219 13.9675 11.3906 13.6512 11.5662 13.4762L12.3294 12.7131C12.3787 12.6637 12.4437 12.6306 12.5225 12.6144C12.6881 12.58 12.795 12.4187 12.7606 12.2531C12.7269 12.0881 12.5662 11.9806 12.3994 12.015C12.2037 12.0556 12.03 12.1469 11.8969 12.2806L11.1337 13.0437C10.7194 13.4575 10.7506 14.1619 11.2031 14.6144C11.4425 14.8537 11.7519 14.975 12.0519 14.975C12.3188 14.975 12.5788 14.8787 12.7737 14.6837L13.5369 13.9206C13.67 13.7875 13.7619 13.6137 13.8025 13.4181C13.8362 13.2519 13.7294 13.09 13.5637 13.0562L13.5637 13.0562ZM15.3719 10.445C14.9194 9.99315 14.215 9.9619 13.8013 10.3757L13.0382 11.1388C12.905 11.2719 12.8132 11.4457 12.7725 11.6413C12.7382 11.8069 12.845 11.9688 13.0107 12.0025C13.1775 12.0369 13.3382 11.93 13.3725 11.7644C13.3888 11.6856 13.4219 11.6206 13.4713 11.5713L14.2344 10.8081C14.4094 10.6331 14.7256 10.6638 14.9394 10.8775C15.1531 11.0913 15.1838 11.4075 15.0088 11.5832L14.2456 12.3463C14.1963 12.3956 14.1313 12.4288 14.0525 12.445C13.8869 12.4794 13.7807 12.6407 13.8144 12.8063C13.8444 12.9506 13.9719 13.0506 14.1138 13.0506C14.1344 13.0506 14.155 13.0488 14.1756 13.0444C14.3707 13.0038 14.545 12.9125 14.6781 12.7788L15.4413 12.0156C15.8544 11.6019 15.8238 10.8969 15.3719 10.445L15.3719 10.445ZM10.37 14.9082H2.76118C1.74555 14.9082 0.918624 14.0813 0.918624 13.065L0.917998 2.93447C0.917998 1.91821 1.74488 1.09191 2.76056 1.09191H12.5599C13.5762 1.09191 14.4025 1.91879 14.4025 2.93447V9.52694C14.4025 9.70632 14.5481 9.85194 14.7275 9.85194C14.9068 9.85194 15.0525 9.70631 15.0525 9.52694L15.0531 2.93447C15.0531 1.5601 13.935 0.441345 12.56 0.441345H2.76125C1.38688 0.441345 0.268127 1.55947 0.268127 2.93447V13.0657C0.268127 14.4407 1.38688 15.5588 2.76125 15.5588H10.37C10.5494 15.5588 10.695 15.4132 10.695 15.2338C10.695 15.0538 10.5494 14.9082 10.37 14.9082L10.37 14.9082ZM8.55318 5.07255H10.8969V2.64375H7.32806V8.91814C6.98994 8.73189 6.60118 8.62627 6.18806 8.62627C4.88181 8.62627 3.8231 9.6844 3.8231 10.9912C3.8231 12.2975 4.88186 13.3562 6.18806 13.3562C7.49432 13.3562 8.55302 12.2974 8.55302 10.9912C8.55302 10.9425 8.55052 10.8944 8.54802 10.8469L8.55302 10.855L8.55318 5.07255Z" fill="#141414"/>
</svg>
